T: Farewell To London
M: 4/4
L: 1/8
K: Gmaj
|:GB3 cABA | GABd eBdB | ADFD ADFD | BdCA BdCA | G2AG FGAF | G2AG ABcA | dg3  fgag |1 fdcA G2GD:||2 fdcA GABc||:dg3 fgag|fdBG DGBd|c2ec BDGB|FGAB cABc|dg3 fgag| fdBG DGBd|c2ec BDGB|1cAFA GABc:||2cAFA G2GD|to start
